svgs/sharp-light/camera.svg

<svg xmlns="http://www.w3.org/2000/svg" viewBox="0 0 512 512"><!--! Font Awesome Pro 6.6.0 by @fontawesome - https://fontawesome.com License - https://fontawesome.com/license (Commercial License) Copyright 2024 Fonticons, Inc. --><path d="M160 32l192 0 21.3 64L480 96l32 0 0 32 0 320 0 32-32 0L32 480 0 480l0-32L0 128 0 96l32 0 106.7 0L160 32zm213.3 96l-23.1 0L343 106.1 328.9 64 183.1 64l-14 42.1L161.7 128l-23.1 0L32 128l0 320 448 0 0-320-106.7 0zM256 176a112 112 0 1 1 0 224 112 112 0 1 1 0-224zm80 112a80 80 0 1 0 -160 0 80 80 0 1 0 160 0z"/></svg>

<svg xmlns="http://www.w3.org/2000/svg" viewBox="0 0 512 512"><!--! Font Awesome Pro 6.4.2 by @fontawesome - https://fontawesome.com License - https://fontawesome.com/license (Commercial License) Copyright 2023 Fonticons, Inc. --><path d="M160 32H352l21.3 64H480h32v32V448v32H480 32 0V448 128 96H32 138.7L160 32zm213.3 96H350.3L343 106.1 328.9 64H183.1l-14 42.1L161.7 128H138.7 32V448H480V128H373.3zM256 176a112 112 0 1 1 0 224 112 112 0 1 1 0-224zm80 112a80 80 0 1 0 -160 0 80 80 0 1 0 160 0z"/></svg>
